X: 2
T: The Woodcock
R: jig
M: 6/8
L: 1/8
K: Gmaj
B|:dBG cGE|DED ~G3|~B3 dcB|dcB ABc||dBG cGE|DED ~G3|1 ~B3 dcB|AGF GBc:|2 ~B3 ded|cAF GBc|||dBG ecA|~f3 g2 d|e/f/ge dBG|dcB ABc||dBG ecA|~f3 g2 d|e/f/ge dBG|AGF GBc||dBG ecA|~f3 g2 d|e/f/ge dBG|dcB ABc||dBG cGE|DED ~G3|~B3 ded|cAF G2 B||


Tune 580	Setting 13571

